public/weather-icons/MostlyCloudy.svg

<svg width="40" height="40" viewBox="0 0 40 40" fill="none" xmlns="http://www.w3.org/2000/svg">
<path d="M24 9C24 8.44772 23.5523 8 23 8C22.4477 8 22 8.44772 22 9V10C22 10.5523 22.4477 11 23 11C23.5523 11 24 10.5523 24 10V9Z" fill="#F9BE1A"/>
<path d="M19.0002 12.0718C18.5219 12.3479 17.9103 12.1841 17.6342 11.7058L17.1342 10.8398C16.858 10.3615 17.0219 9.74987 17.5002 9.47373C17.9785 9.19759 18.5901 9.36146 18.8662 9.83976L19.3662 10.7058C19.6424 11.1841 19.4785 11.7957 19.0002 12.0718Z" fill="#F9BE1A"/>
<path d="M28.4998 9.47379C28.9781 9.74993 29.142 10.3615 28.8658 10.8398L28.3658 11.7058C28.0897 12.1841 27.4781 12.348 26.9998 12.0719C26.5215 11.7957 26.3576 11.1841 26.6338 10.7058L27.1338 9.83981C27.4099 9.36152 28.0215 9.19764 28.4998 9.47379Z" fill="#F9BE1A"/>
<path d="M18.9998 25.9283C19.4781 26.2044 19.642 26.816 19.3658 27.2943L18.8658 28.1603C18.5897 28.6386 17.9781 28.8025 17.4998 28.5263C17.0215 28.2502 16.8576 27.6386 17.1338 27.1603L17.6338 26.2943C17.9099 25.816 18.5215 25.6521 18.9998 25.9283Z" fill="#F9BE1A"/>
<path d="M31.1603 24.8661C31.6386 25.1422 32.2502 24.9783 32.5264 24.5C32.8025 24.0217 32.6386 23.4101 32.1603 23.134L31.2943 22.634C30.816 22.3579 30.2044 22.5217 29.9283 23C29.6521 23.4783 29.816 24.0899 30.2943 24.3661L31.1603 24.8661Z" fill="#F9BE1A"/>
<path d="M16.0718 15C15.7956 15.4783 15.184 15.6422 14.7058 15.3661L13.8397 14.8661C13.3614 14.5899 13.1976 13.9783 13.4737 13.5C13.7498 13.0217 14.3614 12.8579 14.8397 13.134L15.7058 13.634C16.184 13.9101 16.3479 14.5217 16.0718 15Z" fill="#F9BE1A"/>
<path d="M32.1603 14.8661C32.6386 14.5899 32.8025 13.9783 32.5264 13.5C32.2502 13.0217 31.6386 12.8579 31.1603 13.134L30.2943 13.634C29.816 13.9101 29.6521 14.5217 29.9283 15C30.2044 15.4783 30.816 15.6422 31.2943 15.3661L32.1603 14.8661Z" fill="#F9BE1A"/>
<path d="M16.0718 23C16.3479 23.4783 16.184 24.0899 15.7058 24.3661L14.8397 24.8661C14.3614 25.1422 13.7498 24.9783 13.4737 24.5C13.1976 24.0217 13.3614 23.4101 13.8397 23.134L14.7058 22.634C15.184 22.3579 15.7956 22.5217 16.0718 23Z" fill="#F9BE1A"/>
<path d="M27.1342 28.1602C27.4103 28.6385 28.0219 28.8024 28.5002 28.5263C28.9785 28.2501 29.1424 27.6385 28.8662 27.1602L28.3662 26.2942C28.0901 25.8159 27.4785 25.6521 27.0002 25.9282C26.5219 26.2043 26.358 26.8159 26.6342 27.2942L27.1342 28.1602Z" fill="#F9BE1A"/>
<path d="M23 27C23.5523 27 24 27.4477 24 28V29C24 29.5523 23.5523 30 23 30C22.4477 30 22 29.5523 22 29V28C22 27.4477 22.4477 27 23 27Z" fill="#F9BE1A"/>
<path d="M33 20C33.5523 20 34 19.5523 34 19C34 18.4477 33.5523 18 33 18H32C31.4477 18 31 18.4477 31 19C31 19.5523 31.4477 20 32 20H33Z" fill="#F9BE1A"/>
<path d="M15 19C15 19.5523 14.5523 20 14 20H13C12.4477 20 12 19.5523 12 19C12 18.4477 12.4477 18 13 18H14C14.5523 18 15 18.4477 15 19Z" fill="#F9BE1A"/>
<path d="M23 26.0001C26.866 26.0001 30.0001 22.8661 30.0001 19.0001C30.0001 15.134 26.866 12 23 12C19.134 12 16 15.134 16 19.0001C16 22.8661 19.134 26.0001 23 26.0001Z" fill="#F9BE1A"/>
<path d="M9.25607 22.3125C9.08936 21.7372 9 21.1291 9 20.5C9 16.9101 11.9101 14 15.5 14C18.4579 14 20.9543 15.9757 21.7416 18.6794C22.4669 17.6628 23.656 17 25 17C27.2091 17 29 18.7909 29 21C29 21.3453 28.9562 21.6804 28.874 22H29C31.7614 22 34 24.2386 34 27C34 29.7614 31.7614 32 29 32H11C8.23858 32 6 29.7614 6 27C6 24.8519 7.35455 23.0203 9.25607 22.3125Z" fill="#DDDDDD"/>
</svg>

<?xml version="1.0" encoding="utf-8"?>
<!-- Generator: Adobe Illustrator 26.1.0, SVG Export Plug-In . SVG Version: 6.00 Build 0)  -->
<svg version="1.1" id="Шар_1" xmlns="http://www.w3.org/2000/svg" xmlns:xlink="http://www.w3.org/1999/xlink" x="0px" y="0px"
	 viewBox="0 0 40 40" style="enable-background:new 0 0 40 40;" xml:space="preserve">
<style type="text/css">
	.st0{fill:#F9BE1A;}
	.st1{fill:#F0F0F0;}
</style>
<path class="st0" d="M24,9c0-0.6-0.4-1-1-1s-1,0.4-1,1v1c0,0.6,0.4,1,1,1s1-0.4,1-1V9z"/>
<path class="st0" d="M19,12.1c-0.5,0.3-1.1,0.1-1.4-0.4l-0.5-0.9c-0.3-0.5-0.1-1.1,0.4-1.4s1.1-0.1,1.4,0.4l0.5,0.9
	C19.6,11.2,19.5,11.8,19,12.1z"/>
<path class="st0" d="M28.5,9.5c0.5,0.3,0.6,0.9,0.4,1.4l-0.5,0.9c-0.3,0.5-0.9,0.6-1.4,0.4c-0.5-0.3-0.6-0.9-0.4-1.4l0.5-0.9
	C27.4,9.4,28,9.2,28.5,9.5z"/>
<path class="st0" d="M19,25.9c0.5,0.3,0.6,0.9,0.4,1.4l-0.5,0.9c-0.3,0.5-0.9,0.6-1.4,0.4c-0.5-0.3-0.6-0.9-0.4-1.4l0.5-0.9
	C17.9,25.8,18.5,25.7,19,25.9z"/>
<path class="st0" d="M31.2,24.9c0.5,0.3,1.1,0.1,1.4-0.4c0.3-0.5,0.1-1.1-0.4-1.4l-0.9-0.5c-0.5-0.3-1.1-0.1-1.4,0.4
	c-0.3,0.5-0.1,1.1,0.4,1.4L31.2,24.9z"/>
<path class="st0" d="M16.1,15c-0.3,0.5-0.9,0.6-1.4,0.4l-0.9-0.5c-0.5-0.3-0.6-0.9-0.4-1.4c0.3-0.5,0.9-0.6,1.4-0.4l0.9,0.5
	C16.2,13.9,16.3,14.5,16.1,15z"/>
<path class="st0" d="M32.2,14.9c0.5-0.3,0.6-0.9,0.4-1.4c-0.3-0.5-0.9-0.6-1.4-0.4l-0.9,0.5c-0.5,0.3-0.6,0.9-0.4,1.4
	c0.3,0.5,0.9,0.6,1.4,0.4L32.2,14.9z"/>
<path class="st0" d="M16.1,23c0.3,0.5,0.1,1.1-0.4,1.4l-0.9,0.5c-0.5,0.3-1.1,0.1-1.4-0.4c-0.3-0.5-0.1-1.1,0.4-1.4l0.9-0.5
	C15.2,22.4,15.8,22.5,16.1,23z"/>
<path class="st0" d="M27.1,28.2c0.3,0.5,0.9,0.6,1.4,0.4c0.5-0.3,0.6-0.9,0.4-1.4l-0.5-0.9c-0.3-0.5-0.9-0.6-1.4-0.4
	s-0.6,0.9-0.4,1.4L27.1,28.2z"/>
<path class="st0" d="M23,27c0.6,0,1,0.4,1,1v1c0,0.6-0.4,1-1,1s-1-0.4-1-1v-1C22,27.4,22.4,27,23,27z"/>
<path class="st0" d="M33,20c0.6,0,1-0.4,1-1s-0.4-1-1-1h-1c-0.6,0-1,0.4-1,1s0.4,1,1,1H33z"/>
<path class="st0" d="M15,19c0,0.6-0.4,1-1,1h-1c-0.6,0-1-0.4-1-1s0.4-1,1-1h1C14.6,18,15,18.4,15,19z"/>
<path class="st0" d="M23,26c3.9,0,7-3.1,7-7c0-3.9-3.1-7-7-7s-7,3.1-7,7C16,22.9,19.1,26,23,26z"/>
<path class="st1" d="M9.3,22.3C9.1,21.7,9,21.1,9,20.5c0-3.6,2.9-6.5,6.5-6.5c3,0,5.5,2,6.2,4.7c0.7-1,1.9-1.7,3.3-1.7
	c2.2,0,4,1.8,4,4c0,0.3,0,0.7-0.1,1H29c2.8,0,5,2.2,5,5s-2.2,5-5,5H11c-2.8,0-5-2.2-5-5C6,24.9,7.4,23,9.3,22.3z"/>
</svg>
